!!!COM: Palestrina, Giovanni Perluigi da
!!!OPR: Benedicta es
!!!OTL: Credo
**kern	**kern	**kern	**kern	**kern	**kern
*Ibass	*Ibass	*Itenor	*Icalto	*Icalto	*Icant
!Bassus 2	!Bassus 1	!Tenor	!Altus 2	!Altus 1	!Cantus
*clefF4	*clefF4	*clefGv2	*clefG2	*clefG2	*clefG2
*k[]	*k[]	*k[]	*k[]	*k[]	*k[]
*G:mix	*G:mix	*G:mix	*G:mix	*G:mix	*G:mix
*M4/2	*M4/2	*M4/2	*M4/2	*M4/2	*M4/2
=1	=1	=1	=1	=1	=1
0r	0r	0r	1r	1d	0r
.	.	.	1G	2d	.
.	.	.	.	2d	.
=2	=2	=2	=2	=2	=2
0r	0r	0r	2G	2.g	0g
.	.	.	2G	.	.
.	.	.	.	4f	.
.	.	.	2c	2e	.
.	.	.	2B	2d	.
=3	=3	=3	=3	=3	=3
0r	0r	0r	2.e	2.c	1g
.	.	.	4d	4B	.
.	.	.	4e	4c	1g
.	.	.	4f	4d	.
.	.	.	[2g	2e	.
=4	=4	=4	=4	=4	=4
0r	1D	0r	2g]	1d	1a
.	.	.	4f#	.	.
.	.	.	4e	.	.
.	2D	.	1f#	2r	1a
.	2D	.	.	2d	.
=5	=5	=5	=5	=5	=5
1GG	2.G	0G	2g	2d	0b
.	.	.	4G	2d	.
.	4F	.	4A	.	.
2GG	2E	.	4B	2.g	.
.	.	.	4c	.	.
2GG	2D	.	4d	.	.
.	.	.	4B	4f	.
=6	=6	=6	=6	=6	=6
2C	2C	[0G	2c	2e	1g
2BB	2GG	.	2d	2d	.
2.E	2.C	.	1e	2c	2r
.	.	.	.	[2e	2g
4D	4BB	.	.	.	.
=7	=7	=7	=7	=7	=7
4E	4C	1G]	1r	2e]	2g
4F	4D	.	.	.	.
1G	2E	.	.	2c	2g
.	1D	1A	2r	1d	1dd
2F#	.	.	2d	.	.
=8	=8	=8	=8	=8	=8
[0G	[0GG	1B	2d	2r	2b
.	.	.	2d	2d	4g
.	.	.	.	.	4a
.	.	2.G	1g	2.B	4b
.	.	.	.	.	4cc
.	.	.	.	.	[2dd
.	.	4A	.	4c	.
=9	=9	=9	=9	=9	=9
0G]	0GG]	2B	2g	2d	2dd]
.	.	2c	2g	2e	1cc
.	.	1d	1g	2d	.
.	.	.	.	[2G	2b
=10	=10	=10	=10	=10	=10
[0C	0r	2c	0e	2G]	1cc
.	.	1G	.	2G	.
.	.	.	.	2.c	2r
.	.	2G	.	.	[2g
.	.	.	.	4d	.
=11	=11	=11	=11	=11	=11
1C]	0r	2.c	2r	0e	2g]
.	.	.	1c	.	2g
.	.	4B	.	.	.
1r	.	1A	.	.	2.cc
.	.	.	2c	.	.
.	.	.	.	.	4cc
=12	=12	=12	=12	=12	=12
0r	0r	1d	2.f	0r	2b
.	.	.	.	.	2.a
.	.	.	4f	.	.
.	.	2c	2e	.	.
.	.	.	.	.	4g
.	.	2B	2d	.	[2g
=13	=13	=13	=13	=13	=13
0r	2r	0A	2c	1r	2g]
.	1D	.	2.d	.	4f#
.	.	.	.	.	4e
.	.	.	.	[1d	2f#
.	.	.	4c	.	.
.	2D	.	2A	.	2f#
=14	=14	=14	=14	=14	=14
0r	1G	2r	0B	2d]	0g
.	.	1G	.	2d	.
.	1E	.	.	1g	.
.	.	2G	.	.	.
=15	=15	=15	=15	=15	=15
0r	1A	2.c	2r	2f	0r
.	.	.	2c	2.e	.
.	.	4c	.	.	.
.	2G	2B	1d	.	.
.	.	.	.	4d	.
.	2F	[2A	.	[2d	.
=16	=16	=16	=16	=16	=16
0r	1E	4A]	2G	2d]	1r
.	.	4G	.	.	.
.	.	1G	2G	2c#	.
.	1D	.	2A	1d	1a
.	.	2F#	2A	.	.
=17	=17	=17	=17	=17	=17
0r	1GG	2G	1G	2r	2b
.	.	2B	.	2d	1dd
.	1r	1A	1r	1e	.
.	.	.	.	.	2cc
=18	=18	=18	=18	=18	=18
2r	0r	1G	1r	1g	2b
2G	.	.	.	.	2b
2A	.	1r	1c	2f	1a
[2c	.	.	.	[2e	.
=19	=19	=19	=19	=19	=19
2c]	0r	0r	2e	2e]	1g
2B	.	.	1g	2d	.
2A	.	.	.	1c	2a
2A	.	.	2f	.	[2cc
=20	=20	=20	=20	=20	=20
1G	2r	0r	2e	2.g	4cc]
.	.	.	.	.	4b
.	2G	.	2d	.	2.b
.	.	.	.	4f	.
1r	2A	.	1c	[1e	.
.	.	.	.	.	4a
.	[2c	.	.	.	[2a
=21	=21	=21	=21	=21	=21
0r	2c]	2r	1G	2e]	4a]
.	.	.	.	.	4g
.	2B	2G	.	2d	1g
.	1A	2A	1r	1c	.
.	.	[2c	.	.	2f#
=22	=22	=22	=22	=22	=22
1r	1G	2c]	2r	1d	1g
.	.	2B	2G	.	.
1C	1r	2c	2A	1c	1e
.	.	2e	2c	.	.
=23	=23	=23	=23	=23	=23
2D	0r	2d	2B	2r	0r
1F	.	4c	4A	2c	.
.	.	4B	4G	.	.
.	.	2A	4A	2c	.
.	.	.	4B	.	.
2E	.	2G	[2c	2c	.
=24	=24	=24	=24	=24	=24
1D	1r	1F	2c]	1.f	0r
.	.	.	2B	.	.
1C	2r	1G	[1c	.	.
.	2C	.	.	4e	.
.	.	.	.	4d	.
=25	=25	=25	=25	=25	=25
0r	2C	2r	1c]	1e	1g
.	2C	2c	.	.	.
.	1G	2c	1r	1d	2g
.	.	2B	.	.	2g
=26	=26	=26	=26	=26	=26
0r	2F	2A	1r	2.f	1cc
.	2.A	2F	.	.	.
.	.	.	.	4e	.
.	.	1G	2r	2d	1b
.	4G	.	.	.	.
.	[2G	.	2d	2G	.
=27	=27	=27	=27	=27	=27
0r	2G]	2D	2d	2A	2a
.	2F	2.d	2d	2A	2a
.	1E	.	1g	1G	2b
.	.	4c	.	.	.
.	.	[2c	.	.	2cc
=28	=28	=28	=28	=28	=28
1r	1D	2c]	1f	1r	1dd
.	.	2B	.	.	.
2r	1C	1c	[1e	2r	[1g
[2C	.	.	.	[2c	.
=29	=29	=29	=29	=29	=29
2C]	1r	1G	2e]	2c]	0g]
2BB	.	.	2d	2d	.
2C	2r	1G	2c	2e	.
2GG	[2G	.	2B	2d	.
=30	=30	=30	=30	=30	=30
1D	2G]	1A	1A	1d	2r
.	2F#	.	.	.	2dd
[1GG	2G	1B	1G	1d	2dd
.	2D	.	.	.	[2dd
=31	=31	=31	=31	=31	=31
1GG]	1G	1B	1d	2r	2dd]
.	.	.	.	1g	2b
2r	1C	[1A	1e	.	1cc
[2C	.	.	.	2g	.
=32	=32	=32	=32	=32	=32
2C]	2r	1A]	2c	2e	1g
2BB	1G	.	2d	2d	.
2C	.	1G	1e	[1c	2r
2C	2E	.	.	.	[2cc
=33	=33	=33	=33	=33	=33
1FF	2F	2A	2c	2c]	2cc]
.	2F	1c	2f	2.A	2cc
2.AA	2.C	.	2e	.	2cc
.	.	.	.	4B	.
.	.	2c	[2e	[2c	2cc
4BB	4D	.	.	.	.
=34	=34	=34	=34	=34	=34
1C	2E	2c	2e]	4c]	1g
.	.	.	.	4d	.
.	2C	2.c	2e	4e	.
.	.	.	.	4f	.
1C	2.E	.	2c	[1g	[1cc
.	.	4d	.	.	.
.	.	[2e	[2G	.	.
.	4F	.	.	.	.
=35	=35	=35	=35	=35	=35
[0GG	1.G	2e]	4G]	2g]	2cc]
.	.	.	4A	.	.
.	.	2d	1B	2g	2b
.	.	4d	.	1g	2b
.	.	4c	.	.	.
.	2G	4B	2G	.	2dd
.	.	4A	.	.	.
=36	=36	=36	=36	=36	=36
0GG]	1G	0B	1d	2r	2dd
.	.	.	.	2d	2dd
.	2r	.	1G	2d	4b
.	.	.	.	.	4cc
.	2GG	.	.	2d	4dd
.	.	.	.	.	4b
=37	=37	=37	=37	=37	=37
0r	2C	2r	2G	8e	2cc
.	.	.	.	8d	.
.	.	.	.	8e	.
.	.	.	.	8f	.
.	2GG	2d	2G	1g	2b
.	1D	2d	4A	.	1a
.	.	.	4D	.	.
.	.	2d	2d	2f#	.
=38	=38	=38	=38	=38	=38
2r	2GG	4B	2d	0g	1b
.	.	4c	.	.	.
2GG	2G	4d	2d	.	.
.	.	4B	.	.	.
2C	2G	2c	8e	.	2r
.	.	.	8d	.	.
.	.	.	8e	.	.
.	.	.	8f	.	.
2GG	2G	2B	[2g	.	[2dd
=39	=39	=39	=39	=39	=39
2D	2A	2A	2g]	2r	2dd]
2D	2A	2A	2f#	1d	2dd
2GG	1G	1B	[1g	.	4b
.	.	.	.	.	4cc
[2G	.	.	.	2d	4dd
.	.	.	.	.	4b
=40	=40	=40	=40	=40	=40
2G]	2C	2r	1g]	8e	2cc
.	.	.	.	8d	.
.	.	.	.	8e	.
.	.	.	.	8f	.
2G	2GG	1d	.	1g	2b
1A	1D	.	2r	.	1a
.	.	2d	[2d	2f#	.
=41	=41	=41	=41	=41	=41
1G	2GG	4B	2d]	0g	1b
.	.	4c	.	.	.
.	1G	4d	2d	.	.
.	.	4B	.	.	.
2C	.	2c	8e	.	2r
.	.	.	8d	.	.
.	.	.	8e	.	.
.	.	.	8f	.	.
2GG	2G	2B	[2g	.	2dd
=42	=42	=42	=42	=42	=42
1D	1A	1A	2g]	2r	2dd
.	.	.	2f#	2d	2dd
2GG	2G	1B	[1g	2d	4b
.	.	.	.	.	4cc
2G	2GG	.	.	2d	4dd
.	.	.	.	.	4b
=43	=43	=43	=43	=43	=43
2G	2C	2r	1g]	8e	2cc
.	.	.	.	8d	.
.	.	.	.	8e	.
.	.	.	.	8f	.
2G	2GG	2d	.	1g	2b
1A	1D	2d	2r	.	2a
.	.	2A	2d	2f#	4dd
.	.	.	.	.	4cc
=44	=44	=44	=44	=44	=44
2G	2GG	4B	2d	0g	4b
.	.	4c	.	.	4a
2GG	2G	4d	2d	.	4g
.	.	4B	.	.	4f
2C	2G	2c	2e	.	4e
.	.	.	.	.	4f
2GG	2G	2B	[2d	.	[2g
=45	=45	=45	=45	=45	=45
1D	1A	2A	4d]	1r	2g]
.	.	.	4c	.	.
.	.	2.d	2A	.	2f#
[1GG	1G	.	1B	2r	1g
.	.	4c	.	.	.
.	.	4B	.	[2d	.
.	.	4A	.	.	.
=46	=46	=46	=46	=46	=46
1GG]	2r	1B	1G	2d]	2r
.	1G	.	.	2d	1b
1r	.	1r	2r	2d	.
.	2G	.	[2g	2d	2b
=47	=47	=47	=47	=47	=47
0r	2G	0r	2g]	1e	2b
.	2G	.	2g	.	2b
.	1A	.	2e	1c	1cc
.	.	.	2e	.	.
=48	=48	=48	=48	=48	=48
0r	1F	1r	1f	1.d	1a
.	2.G	2r	1d	.	2b
.	.	[2d	.	2B	2g
.	4G	.	.	.	.
=49	=49	=49	=49	=49	=49
1r	2G	2d]	0r	2G	2.dd
.	2F#	2d	.	2A	.
.	.	.	.	.	4cc
2r	1G	2d	.	1B	4b
.	.	.	.	.	4a
2G	.	2d	.	.	4g
.	.	.	.	.	4f
=50	=50	=50	=50	=50	=50
2G	1C	1e	0r	2.c	4e
.	.	.	.	.	4d
1A	.	.	.	.	4c
.	.	.	.	4d	4B
.	1r	1c	.	2e	2A
2F	.	.	.	[2f	[2a
=51	=51	=51	=51	=51	=51
2B-	0r	2.d	1r	2f]	2a]
2B-	.	.	.	4e	2g
.	.	4d	.	4d	.
1A	.	2d	2r	1e	[1a
.	.	2c#	[2A	.	.
=52	=52	=52	=52	=52	=52
0D	2r	2.d	2A]	1d	1a]
.	1D	.	2A	.	.
.	.	4c	.	.	.
.	.	2B	[1d	1r	1r
.	2D	2A	.	.	.
=53	=53	=53	=53	=53	=53
0r	1.G	1B	2d]	1d	0r
.	.	.	2B	.	.
.	.	2r	2B	2d	.
.	2E	2G	[2e	[2g	.
=54	=54	=54	=54	=54	=54
0r	2E	2G	4e]	2g]	0r
.	.	.	4d	.	.
.	2.A	1c	4c	2f	.
.	.	.	4B	.	.
.	.	.	2A	1e	.
.	4G	.	.	.	.
.	2E	2B	2G	.	.
=55	=55	=55	=55	=55	=55
0r	2F	2A	2A	1d	1r
.	2G	4G	2B	.	.
.	.	4F	.	.	.
.	2.C	4E	1G	1e	1cc
.	.	4C	.	.	.
.	.	[2G	.	.	.
.	4BB	.	.	.	.
=56	=56	=56	=56	=56	=56
0r	1AA	2G]	1A	1c	1cc
.	.	2F#	.	.	.
.	1GG	[1G	2.B	2r	1b
.	.	.	.	2g	.
.	.	.	4c	.	.
=57	=57	=57	=57	=57	=57
1G	1GG	1G]	1d	1g	1b
!! homines
*Ibass	*Ibass	*Itenor	*Icalto	*Icalto	*Icant
!Bassus 2	!Bassus 1	!Tenor	!Altus 2	!Altus 1	!Cantus
*clefF4	*clefF4	*clefGv2	*clefG2	*clefG2	*clefG2
*k[]	*k[]	*k[]	*k[]	*k[]	*k[]
*G:mix	*G:mix	*G:mix	*G:mix	*G:mix	*G:mix
*M4/2	*M4/2	*M4/2	*M4/2	*M4/2	*M4/2
=58	=58	=58	=58	=58	=58
2D	0r	1r	1d	1f	1a
2D	.	.	.	.	.
1F	.	1c	1r	1f	1a
=59	=59	=59	=59	=59	=59
4C	1C	1c	1g	2e	2.g
4D	.	.	.	.	.
4E	.	.	.	2e	.
4F	.	.	.	.	4a
2G	2GG	2B	1g	[1d	2b
2G	2GG	2B	.	.	2g
=60	=60	=60	=60	=60	=60
1D	1D	1A	2f	1d]	1a
.	.	.	2f	.	.
2r	2.AA	1A	1e	1r	1cc
2A	.	.	.	.	.
.	4BB	.	.	.	.
=61	=61	=61	=61	=61	=61
2E	2C	0G	1e	1g	2cc
2E	2C	.	.	.	2cc
1G	1GG	.	[1d	2g	1b
.	.	.	.	2g	.
=62	=62	=62	=62	=62	=62
4D	2r	1r	1d]	1f	2a
4E	.	.	.	.	.
4F	2D	.	.	.	2a
4G	.	.	.	.	.
1A	2AA	1c	1r	1e	1a
.	2AA	.	.	.	.
=63	=63	=63	=63	=63	=63
2.E	1C	2c	1g	1e	2.g
.	.	2c	.	.	.
4F	.	.	.	.	4a
2G	4GG	1B	2g	[1d	4b
.	4AA	.	.	.	4cc
[2D	4BB	.	2g	.	[2dd
.	4C	.	.	.	.
=64	=64	=64	=64	=64	=64
4D]	1D	2A	1f	1d]	4dd]
4E	.	.	.	.	4cc
4F	.	2A	.	.	2.a
4D	.	.	.	.	.
2E	1AA	1A	2e	[1c	.
.	.	.	.	.	4b
2C	.	.	2e	.	[2cc
=65	=65	=65	=65	=65	=65
2.E	1C	[0G	1e	1c]	2cc]
.	.	.	.	.	4b
4F	.	.	.	.	4a
1G	1GG	.	[1d	2r	1b
.	.	.	.	2d	.
=66	=66	=66	=66	=66	=66
1GG	2r	1G]	1d]	0r	1dd
.	2G	.	.	.	.
1r	2A	2r	1r	.	1cc
.	2F	2A	.	.	.
=67	=67	=67	=67	=67	=67
0r	2.G	2B	1r	0d	1b
.	.	2G	.	.	.
.	4F	.	.	.	.
.	2D	2A	2r	.	1a
.	2F	[2d	2A	.	.
=68	=68	=68	=68	=68	=68
1r	1E	2d]	2B	1G	1g
.	.	2c	2G	.	.
2r	1D	1d	2A	1r	1f
2D	.	.	[2d	.	.
=69	=69	=69	=69	=69	=69
2E	0r	1G	4d]	1g	1e
.	.	.	4c	.	.
2C	.	.	2.c	.	.
2.D	.	2r	.	1f	1d
.	.	.	4B	.	.
.	.	2D	[2B	.	.
4C	.	.	.	.	.
=70	=70	=70	=70	=70	=70
2AA	1r	2E	4B]	2e	1r
.	.	.	4A	.	.
2C	.	2C	1A	2e	.
1BB	2r	1D	.	2d	1dd
.	2G	.	2G	4c	.
.	.	.	.	4B	.
=71	=71	=71	=71	=71	=71
1AA	2A	1A	2.c	2e	1cc
.	2F	.	.	2A	.
.	.	.	4d	.	.
2GG	2.G	2.B	4e	1r	1b
.	.	.	4f	.	.
2G	.	.	2g	.	.
.	4F	4c	.	.	.
=72	=72	=72	=72	=72	=72
2A	2D	1d	4f	2r	1a
.	.	.	4e	.	.
2F	2F	.	1d	2A	.
1G	1E	1e	.	2B	1g
.	.	.	2c	2G	.
=73	=73	=73	=73	=73	=73
2r	1D	2r	2.d	2A	1f
2D	.	2A	.	1d	.
.	.	.	4c	.	.
2E	2r	2G	2B	.	1e
2C	2AA	[2A	2A	2c	.
=74	=74	=74	=74	=74	=74
[0D	2BB	4A]	2r	1B	2.d
.	.	4G	.	.	.
.	2GG	2G	2d	.	.
.	.	.	.	.	4e
.	2.D	2F	2d	1A	4f
.	.	.	.	.	4g
.	.	2D	4c	.	[2a
.	4E	.	4B	.	.
=75	=75	=75	=75	=75	=75
1D]	1F	2r	1A	1d	2a]
.	.	2A	.	.	2f
2r	1E	2B	2G	2e	2g
2AA	.	2A	2c	2c	[2a
=76	=76	=76	=76	=76	=76
2BB	[0D	2F#	2B	1d	4a]
.	.	.	.	.	4g
2GG	.	2G	2.d	.	1g
1D	.	1A	.	1d	.
.	.	.	4c	.	.
.	.	.	2A	.	2f#
=77	=77	=77	=77	=77	=77
0GG	0D]	0G	0B	0d	0g
=78	=78	=78	=78	=78	=78
0r	0C	1G	0c	0e	0g
.	.	1c	.	.	.
=79	=79	=79	=79	=79	=79
0r	1F	1.A	1c	1f	1a
.	1D	.	1d	1f	1a
.	.	[2d	.	.	.
=80	=80	=80	=80	=80	=80
0r	1G	2d]	1B	1g	1b
.	.	1G	.	.	.
.	1C	.	1e	1g	1cc
.	.	[2c	.	.	.
=81	=81	=81	=81	=81	=81
0GG	0G	2c]	0d	1g	1dd
.	.	4B	.	.	.
.	.	4A	.	.	.
.	.	1B	.	1d	2r
.	.	.	.	.	[2g
=82	=82	=82	=82	=82	=82
1C	1E	2c	1c	1.e	2g]
.	.	2G	.	.	1cc
1AA	1A	1c	2e	.	.
.	.	.	2e	2c	[2a
=83	=83	=83	=83	=83	=83
1D	1F	1A	2.d	2.f	2a]
.	.	.	.	.	2.dd
.	.	.	4c	4e	.
1GG	1G	2B	4B	1d	.
.	.	.	4G	.	4cc
.	.	[2d	[2g	.	2b
=84	=84	=84	=84	=84	=84
0D	1A	2d]	2g]	0d	0a
.	.	4c	4f#	.	.
.	.	4B	4e	.	.
.	1D	4A	1f#	.	.
.	.	4G	.	.	.
.	.	2A	.	.	.
=85	=85	=85	=85	=85	=85
0GG	1r	1G	1g	1d	0b
.	[1G	1B	1d	1r	.
=86	=86	=86	=86	=86	=86
1C	1G]	2c	1e	0e	1r
.	.	2.c	.	.	.
1AA	1A	.	1c	.	[1a
.	.	4B	.	.	.
.	.	4A	.	.	.
.	.	4G	.	.	.
=87	=87	=87	=87	=87	=87
1D	1F	1A	1d	1f	1a]
1GG	[1G	1G	2.B	1d	1b
.	.	.	4c	.	.
=88	=88	=88	=88	=88	=88
0r	1G]	0r	2d	1B	1g
.	.	.	2.e	.	.
.	1C	.	.	2c	1e
.	.	.	4d	.	.
.	.	.	4c	[2e	.
.	.	.	4B	.	.
=89	=89	=89	=89	=89	=89
0r	1D	0r	2A	4e]	2f
.	.	.	.	4d	.
.	.	.	2F	1d	2.a
.	1E	.	1G	.	.
.	.	.	.	.	4g
.	.	.	.	2c#	[2g
=90	=90	=90	=90	=90	=90
1r	0D	0A	1A	0d	2g]
.	.	.	.	.	4f#
.	.	.	.	.	4e
[1D	.	.	1D	.	2f#
.	.	.	.	.	2f#
=91	=91	=91	=91	=91	=91
1D]	0GG	1B	1d	0r	[0g
1E	.	1G	1B	.	.
=92	=92	=92	=92	=92	=92
1C	0r	1E	1c	1r	1g]
1D	.	2F	2A	1d	1r
.	.	[2A	2F	.	.
=93	=93	=93	=93	=93	=93
2.C	0r	4A]	1G	1e	1r
.	.	4G	.	.	.
.	.	1G	.	.	.
4BB	.	.	.	.	.
1AA	.	.	[1A	1c	[1a
.	.	4F#	.	.	.
.	.	4E	.	.	.
=94	=94	=94	=94	=94	=94
1D	0D	1F#	1A]	2.d	1a]
.	.	.	.	4c	.
1GG	.	1G	1d	4B	1b
.	.	.	.	4G	.
.	.	.	.	[2g	.
=95	=95	=95	=95	=95	=95
1G	1E	2r	1B	4g]	1g
.	.	.	.	4f	.
.	.	1E	.	2.e	.
1A	1C	.	2c	.	1e
.	.	.	.	4d	.
.	.	[2A	2e	4c	.
.	.	.	.	4B	.
=96	=96	=96	=96	=96	=96
1F	1D	4A]	1d	2A	2f
.	.	4D	.	.	.
.	.	2.d	.	2A	2.a
1G	1GG	.	2.B	1d	.
.	.	4c	.	.	4g
.	.	2B	.	.	[2g
.	.	.	4c	.	.
=97	=97	=97	=97	=97	=97
1A	0D	0A	0d	2r	2g]
.	.	.	.	2.d	4f#
.	.	.	.	.	4e
1D	.	.	.	.	1f#
.	.	.	.	4c	.
.	.	.	.	2A	.
=98	=98	=98	=98	=98	=98
0D	0GG	0G	0d	0B	0g
*	*	*	*	*-	*-
!! Crucifixus
*Itenor	*Icalto	*Icalto	*Icant
!Tenor	!Altus 2	!Altus 1	!Cantus
*clefGv2	*clefG2	*clefG2	*clefG2
*k[]	*k[]	*k[]	*k[]
*G:mix	*G:mix	*G:mix	*G:mix
*M4/2	*M4/2	*M4/2	*M4/2
=99	=99	=99	=99
0r	0r	1G	0r
.	.	2G	.
.	.	[2c	.
=100	=100	=100	=100
0r	1G	2c]	1r
.	.	2B	.
.	2G	2.e	[1g
.	[2c	.	.
.	.	4d	.
=101	=101	=101	=101
0r	2c]	2e	1g]
.	2B	2d	.
.	2.e	2.c	1g
.	4d	4B	.
=102	=102	=102	=102
0r	2e	2c	0a
.	1f	1d	.
.	4e	4c	.
.	4d	4B	.
=103	=103	=103	=103
1r	2e	4A	1a
.	.	4G	.
.	2f#	2A	.
1G	1g	4G	[1b
.	.	4A	.
.	.	4B	.
.	.	4c	.
=104	=104	=104	=104
2G	1r	4d	2b]
.	.	4B	.
1c	.	1e	2g
.	1G	.	[1g
2B	.	[2d	.
=105	=105	=105	=105
2.e	2G	2d]	1g]
.	1c	2c	.
4d	.	.	.
2e	.	2r	1g
2d	2B	2g	.
=106	=106	=106	=106
2.c	2.e	2a	0cc
.	.	1g	.
4B	4d	.	.
1A	2e	.	.
.	2c	2f#	.
=107	=107	=107	=107
0G	2d	1g	0b
.	2e	.	.
.	[1d	2r	.
.	.	2d	.
=108	=108	=108	=108
0r	1d]	2.f	1a
.	.	4g	.
.	1r	2a	2.cc
.	.	4A	.
.	.	4B	4b
=109	=109	=109	=109
0r	0r	4c	2a
.	.	4d	.
.	.	2.e	2g
.	.	.	2f
.	.	4d	.
.	.	[2d	2d
=110	=110	=110	=110
1A	1r	2d]	1e
.	.	2c#	.
2.B	2r	1d	[1d
.	2d	.	.
4c	.	.	.
=111	=111	=111	=111
2d	2.f	1r	1d]
4D	.	.	.
4E	4e	.	.
4F	2d	2r	1r
4G	.	.	.
[2A	2c	2A	.
=112	=112	=112	=112
4A]	2B	2.B	1r
4G	.	.	.
1G	2G	.	.
.	.	4c	.
.	1A	1d	2r
2F#	.	.	2a
=113	=113	=113	=113
1G	2G	0d	2.b
.	2d	.	.
.	.	.	4cc
[1D	2.f	.	2dd
.	.	.	2d
.	4e	.	.
=114	=114	=114	=114
1D]	0d	2r	2.f
.	.	2d	.
.	.	.	4g
[1D	.	2.f	2a
.	.	.	4d
.	.	4e	4e
=115	=115	=115	=115
2D]	2r	2d	4f
.	.	.	4g
2F	2A	2c	2.a
2G	2B	2B	.
.	.	.	4g
2E	2c#	2G	[2g
=116	=116	=116	=116
1D	0d	1A	2g]
.	.	.	2f#
1G	.	2G	1g
.	.	[2g	.
=117	=117	=117	=117
0d	1r	2g]	0a
.	.	4f#	.
.	.	4e	.
.	[1d	1f#	.
=118	=118	=118	=118
1G	1d]	2.g	1b
.	.	4f	.
1c	1e	4e	1cc
.	.	4d	.
.	.	[2c	.
=119	=119	=119	=119
1F	1f	2c]	1a
.	.	1d	.
1G	1d	.	1b
.	.	2B	.
=120	=120	=120	=120
2E	1e	1c	2g
2.A	.	.	2.cc
.	2c	[1A	.
4G	.	.	4b
4F	[2f	.	4a
4E	.	.	4g
=121	=121	=121	=121
1F	2f]	1A]	1a
.	4e	.	.
.	4d	.	.
1C	1e	[1c	1g
=122	=122	=122	=122
0G	0d	2c]	2r
.	.	4B	2g
.	.	4A	.
.	.	1B	2.g
.	.	.	4f
=123	=123	=123	=123
0r	2r	0r	2g
.	2d	.	2a
.	2.d	.	2.f
.	4c	.	4e
=124	=124	=124	=124
0r	2d	0r	2f
.	2e	.	2.g
.	2.c	.	.
.	.	.	4f
.	.	.	4e
.	4B	.	4d
=125	=125	=125	=125
0r	2c	1r	2e
.	2.d	.	2d
.	.	2r	2.dd
.	4c	.	.
.	4B	2d	.
.	4A	.	4cc
=126	=126	=126	=126
0r	2.G	2.d	4b
.	.	.	4a
.	.	.	1b
.	4A	4c	.
.	2B	2d	.
.	4c	2e	2g
.	4d	.	.
=127	=127	=127	=127
0r	4e	2.c	1g
.	4f	.	.
.	1g	.	.
.	.	4B	.
.	.	2c	1a
.	2f#	2d	.
=128	=128	=128	=128
0G	1g	4d	0b
.	.	4c	.
.	.	4B	.
.	.	4A	.
.	2d	2B	.
.	[2d	2G	.
=129	=129	=129	=129
2.G	4d]	2.B	0r
.	4c	.	.
.	2d	.	.
4F	.	4A	.
2G	2e	2B	.
2A	[2c	2c	.
=130	=130	=130	=130
2.F	4c]	2.A	0r
.	4B	.	.
.	2c	.	.
4E	.	4G	.
2F	2.d	2A	.
[2G	.	2B	.
.	4c	.	.
=131	=131	=131	=131
4G]	4B	0G	1r
4F	4A	.	.
4E	1d	.	.
4D	.	.	.
1E	.	.	1g
.	2c	.	.
=132	=132	=132	=132
2D	2f	0r	2a
2G	4e	.	2b
.	4d	.	.
2A	2c	.	2cc
2B	2d	.	4b
.	.	.	4a
=133	=133	=133	=133
2.c	1e	1r	2g
.	.	.	2.a
8B	.	.	.
8A	.	.	.
2G	1r	2r	.
.	.	.	4g
2B	.	2d	2g
=134	=134	=134	=134
1A	2r	2e	1cc
.	2c	2f	.
1G	2d	2.g	2.b
.	2e	.	.
.	.	8f	4cc
.	.	8e	.
=135	=135	=135	=135
0r	2.f	2d	2dd
.	.	2f	2.cc
.	8e	.	.
.	8d	.	.
.	2c	4e	.
.	.	4f	4b
.	2e	[2g	2g
=136	=136	=136	=136
2r	1d	2g]	1a
2D	.	2f	.
2E	2r	2e	2g
2F	2A	2d	2f
=137	=137	=137	=137
2G	2B	0r	1e
2A	2c	.	.
2B	2d	.	1r
2c	2e	.	.
=138	=138	=138	=138
2d	2f	0r	0r
4G	1g	.	.
4A	.	.	.
4B	.	.	.
4c	.	.	.
[2d	2f	.	.
=139	=139	=139	=139
2d]	1e	1A	1r
2c#	.	.	.
1d	1d	2B	2r
.	.	2B	2d
=140	=140	=140	=140
0r	0r	2c	2e
.	.	2d	2f
.	.	2e	2g
.	.	2f	2a
=141	=141	=141	=141
1r	0r	2g	2b
.	.	4c	1cc
.	.	4d	.
2r	.	4e	.
.	.	4f	.
2G	.	[2g	2b
=142	=142	=142	=142
2c	0r	2g]	1a
2d	.	2f#	.
2.e	.	2.g	[1g
4d	.	4f	.
=143	=143	=143	=143
2c	2r	2e	1g]
2B	2G	2d	.
2A	2c	2e	1r
2G	2d	2B	.
=144	=144	=144	=144
2C	2.e	1c	2r
2c	.	.	2g
.	4d	.	.
2A	2c	1r	2cc
2G	2B	.	2dd
=145	=145	=145	=145
2.c	4A	1r	2.ee
.	4B	.	.
.	4c	.	.
4B	4d	.	4dd
2A	1e	2r	2cc
2E	.	2G	2b
=146	=146	=146	=146
1F	2.A	2c	1a
.	.	2d	.
.	4B	.	.
2.C	1c	2.e	[1g
4D	.	4d	.
=147	=147	=147	=147
4E	0r	2c	1g]
4F	.	.	.
1G	.	2B	.
.	.	1A	2r
2F#	.	.	2a
=148	=148	=148	=148
1G	1d	1G	2.b
.	.	.	4g
1r	2.e	1r	2g
.	.	.	[2cc
.	4c	.	.
=149	=149	=149	=149
0r	2c	0r	2cc]
.	2g	.	2b
.	2f	.	2a
.	[2e	.	[2g
=150	=150	=150	=150
1r	4e]	0r	4g]
.	4d	.	4f
.	1d	.	4f
.	.	.	8e
.	.	.	8d
1A	.	.	1e
.	2c#	.	.
=151	=151	=151	=151
2.B	2d	2r	1d
.	2G	2d	.
4G	.	.	.
2G	2.g	2.e	1r
[2c	.	.	.
.	4e	4c	.
=152	=152	=152	=152
2c]	2e	2c	0r
2B	2d	2g	.
2A	2c	2f	.
[2G	2B	[2e	.
=153	=153	=153	=153
4G]	1A	4e]	0r
4F	.	4d	.
4F	.	1d	.
8E	.	.	.
8D	.	.	.
1E	2G	.	.
.	[2g	2c#	.
=154	=154	=154	=154
2D	2g]	1d	0a
1d	1f	.	.
.	.	1A	.
4c	4e	.	.
4B	4d	.	.
=155	=155	=155	=155
2c	2e	2r	1a
2d	2f#	2d	.
2G	1g	2d	1b
2G	.	2d	.
=156	=156	=156	=156
2.c	2r	1e	1.cc
.	2c	.	.
4B	.	.	.
2A	2.c	1f	.
2A	.	.	2cc
.	4d	.	.
=157	=157	=157	=157
0G	2e	1g	0b
.	2.d	.	.
.	.	2r	.
.	4c	.	.
.	4B	[2d	.
.	4A	.	.
=158	=158	=158	=158
2r	1G	2d]	2r
1G	.	2d	1b
.	2r	1d	.
2G	[2d	.	2b
=159	=159	=159	=159
1G	2d]	2G	1b
.	2d	1g	.
2D	1d	.	1a
[2d	.	2f	.
=160	=160	=160	=160
2d]	2G	1e	0r
2c	1g	.	.
2B	.	2d	.
2A	2f	2c	.
=161	=161	=161	=161
2G	2e	2B	0r
2F	1d	2A	.
1E	.	2G	.
.	2c#	[2g	.
=162	=162	=162	=162
1D	1d	2g]	2r
.	.	2f	1dd
1r	2r	1e	.
.	[2g	.	2cc
=163	=163	=163	=163
1r	2g]	2.d	2b
.	2f	.	2a
.	.	4A	.
2r	2e	2c	2g
[2d	2d	2d	2f
=164	=164	=164	=164
2d]	2r	1A	1e
2c	1a	.	.
1B	.	1d	2d
.	2g	.	[2dd
=165	=165	=165	=165
1A	2f	2r	2dd]
.	2.e	2A	2cc
2G	.	4B	2b
.	4d	4G	.
2F	[2d	2A	[2a
=166	=166	=166	=166
1E	2d]	2B	4a]
.	.	.	4g
.	2c#	4A	1g
.	.	4G	.
1D	1d	1A	.
.	.	.	2f#
=167	=167	=167	=167
0G	0d	0G	0g
*-	*-	*-	*-
!! Et in Spiritum
**kern	**kern	**kern	**kern	**kern	**kern
*Ibass	*Ibass	*Itenor	*Icalto	*Icalto	*Icant
!Bassus 2	!Bassus 1	!Tenor	!Altus 2	!Altus 1	!Cantus
*clefF4	*clefF4	*clefGv2	*clefG2	*clefG2	*clefG2
*k[]	*k[]	*k[]	*k[]	*k[]	*k[]
*G:mix	*G:mix	*G:mix	*G:mix	*G:mix	*G:mix
*M4/2	*M4/2	*M4/2	*M4/2	*M4/2	*M4/2
=168	=168	=168	=168	=168	=168
0r	0r	0r	0d	0G	1r
.	.	.	.	.	[1g
=169	=169	=169	=169	=169	=169
0r	0r	0r	1d	1G	1g]
.	.	.	1e	1c	1g
=170	=170	=170	=170	=170	=170
0r	0r	0r	2e	2A	1a
.	.	.	2e	2A	.
.	.	.	1f	1d	2a
.	.	.	.	.	2a
=171	=171	=171	=171	=171	=171
0r	0r	0r	2d	1G	1b
.	.	.	1g	.	.
.	.	.	.	[1c	1g
.	.	.	2e	.	.
=172	=172	=172	=172	=172	=172
0r	0r	0r	1e	2c]	1.cc
.	.	.	.	2A	.
.	.	.	[1f	2A	.
.	.	.	.	[2d	2a
=173	=173	=173	=173	=173	=173
0r	0r	0r	2f]	2d]	1a
.	.	.	2e	2c	.
.	.	.	2d	2B	1dd
.	.	.	2g	2G	.
=174	=174	=174	=174	=174	=174
0r	0r	0r	2.e	4A	1cc
.	.	.	.	4B	.
.	.	.	.	4c	.
.	.	.	4f	4d	.
.	.	.	2g	4e	2b
.	.	.	.	4f	.
.	.	.	2e	[2g	2g
=175	=175	=175	=175	=175	=175
0r	1r	0r	1d	2g]	0a
.	.	.	.	4f#	.
.	.	.	.	4e	.
.	1D	.	1d	1f#	.
=176	=176	=176	=176	=176	=176
0r	2E	1G	1B	1g	1g
.	1G	.	.	.	.
.	.	2A	1A	1r	1r
.	2F	[2c	.	.	.
=177	=177	=177	=177	=177	=177
0r	2E	2c]	2G	2r	0r
.	2D	2B	2B	2d	.
.	2C	2A	2c	2e	.
.	2E	2G	2c	[2g	.
=178	=178	=178	=178	=178	=178
0r	1D	2B	1d	2g]	1r
.	.	2A	.	2f	.
.	2C	2G	4G	2e	1g
.	.	.	4A	.	.
.	2BB	[2G	2B	2d	.
=179	=179	=179	=179	=179	=179
0r	1AA	2G]	2c	2c	2a
.	.	2F#	2A	2c	1cc
.	[1GG	1G	2.B	2e	.
.	.	.	.	[2d	4b
.	.	.	4c	.	4a
=180	=180	=180	=180	=180	=180
1.G	1GG]	2r	1d	4d]	2.b
.	.	.	.	4c	.
.	.	1d	.	4B	.
.	.	.	.	4A	4cc
.	1r	.	2r	1B	1dd
2G	.	2d	[2g	.	.
=181	=181	=181	=181	=181	=181
1G	1.C	0e	2g]	1c	0cc
.	.	.	2g	.	.
1E	.	.	1g	2r	.
.	2C	.	.	[2e	.
=182	=182	=182	=182	=182	=182
1E	1C	2c	2e	2e]	1g
.	.	1c	2c	2e	.
[1A	1AA	.	2.c	1e	[1cc
.	.	[2e	.	.	.
.	.	.	4d	.	.
=183	=183	=183	=183	=183	=183
1A]	1AA	4e]	1e	1c	2cc]
.	.	4d	.	.	.
.	.	4c	.	.	2a
.	.	4B	.	.	.
1A	[1D	4A	[1f	2d	1a
.	.	4G	.	.	.
.	.	4F	.	4d	.
.	.	4E	.	4c	.
=184	=184	=184	=184	=184	=184
0D	1D]	2.F	2f]	4d	1a
.	.	.	.	4e	.
.	.	.	2d	2.f	.
.	.	4G	.	.	.
.	1D	2A	1d	.	1dd
.	.	.	.	4e	.
.	.	2F	.	4d	.
.	.	.	.	4c	.
=185	=185	=185	=185	=185	=185
2r	1GG	1G	1d	2.B	2.b
1G	.	.	.	.	.
.	.	.	.	4G	4cc
.	1r	2r	2B	1G	2dd
2E	.	2G	2c	.	[2cc
=186	=186	=186	=186	=186	=186
2F	0r	2A	1d	1r	2cc]
2G	.	2B	.	.	2b
1C	.	1c	1e	2r	2a
.	.	.	.	2g	2g
=187	=187	=187	=187	=187	=187
1D	1r	1A	1d	2g	2r
.	.	.	.	2f#	2dd
1GG	2r	1G	2d	2g	2dd
.	2G	.	2d	4f	2b
.	.	.	.	4e	.
=188	=188	=188	=188	=188	=188
0r	2G	2r	2B	2d	2dd
.	2E	2G	2c	2g	1cc
.	2F	2A	1d	4f	.
.	.	.	.	4e	.
.	2G	2B	.	2d	2b
=189	=189	=189	=189	=189	=189
0r	1C	2.c	1e	2c	2a
.	.	.	.	2G	1g
.	.	4B	.	.	.
.	1D	1A	1d	2r	.
.	.	.	.	[2d	2f#
=190	=190	=190	=190	=190	=190
2r	0GG	0G	1B	2d]	2g
1G	.	.	.	2d	1b
.	.	.	2r	2d	.
2G	.	.	[2g	2d	2b
=191	=191	=191	=191	=191	=191
2G	0r	0r	2g]	1e	2b
2G	.	.	2g	.	2b
1A	.	.	2e	2c	1cc
.	.	.	2e	[2A	.
=192	=192	=192	=192	=192	=192
1F	0r	0r	1.f	2A]	2a
.	.	.	.	2.d	2a
2D	.	.	.	.	2.dd
.	.	.	.	4c	.
[2G	.	.	[2d	4B	.
.	.	.	.	4A	4cc
=193	=193	=193	=193	=193	=193
4G]	0r	0r	2d]	4B	4b
4F	.	.	.	4c	4a
4E	.	.	2d	1d	1b
4D	.	.	.	.	.
1E	.	.	2.g	.	.
.	.	.	.	2c	2g
.	.	.	4e	.	.
=194	=194	=194	=194	=194	=194
1D	1r	0r	4f	2r	1a
.	.	.	4e	.	.
.	.	.	4d	2d	.
.	.	.	4c	.	.
1GG	2r	.	4B	2d	[1g
.	.	.	4A	.	.
.	2G	.	2B	2d	.
=195	=195	=195	=195	=195	=195
1C	2G	2r	1c	1e	1g]
.	2G	2c	.	.	.
1AA	1A	2c	1r	2c	1r
.	.	2c	.	[2A	.
=196	=196	=196	=196	=196	=196
1D	1F	1d	0r	2A]	0r
.	.	.	.	2.d	.
1GG	2D	1B	.	.	.
.	.	.	.	4c	.
.	[2G	.	.	4B	.
.	.	.	.	4A	.
=197	=197	=197	=197	=197	=197
0r	4G]	2G	0r	2B	1g
.	4F	.	.	.	.
.	4E	2.c	.	2.e	.
.	4D	.	.	.	.
.	2E	.	.	.	2g
.	.	4B	.	4f	.
.	2E	4A	.	[2g	2g
.	.	4G	.	.	.
=198	=198	=198	=198	=198	=198
1r	1D	2A	2r	2g]	2dd
.	.	2A	2d	2f#	2dd
2r	1GG	1G	2d	1g	1b
2G	.	.	2d	.	.
=199	=199	=199	=199	=199	=199
2G	1C	2r	2e	0r	1g
2G	.	2c	2e	.	.
2A	1AA	2c	2c	.	2.cc
2A	.	2c	[2A	.	.
.	.	.	.	.	4b
=200	=200	=200	=200	=200	=200
1F	2D	2d	2A]	0r	4a
.	.	.	.	.	4g
.	2D	2d	2.d	.	2a
2D	1GG	1B	.	.	2.dd
.	.	.	4c	.	.
[2G	.	.	4B	.	.
.	.	.	4A	.	4cc
=201	=201	=201	=201	=201	=201
4G]	0r	2G	2B	0r	4b
4F	.	.	.	.	4a
4E	.	2.c	1e	.	4g
4D	.	.	.	.	4f
1E	.	.	.	.	4e
.	.	4B	.	.	4f
.	.	4A	2c	.	[2g
.	.	4G	.	.	.
=202	=202	=202	=202	=202	=202
1D	1r	2A	0d	2r	2g]
.	.	2A	.	2A	2f#
1GG	1D	2G	.	2.B	[1g
.	.	[2B	.	.	.
.	.	.	.	4G	.
=203	=203	=203	=203	=203	=203
0r	2.E	2B]	0r	2G	0g]
.	.	1e	.	1c	.
.	4C	.	.	.	.
.	2C	.	.	.	.
.	2G	2d	.	2B	.
=204	=204	=204	=204	=204	=204
0r	2F	2d	1r	2A	0r
.	2E	2c	.	1G	.
.	1D	2B	1d	.	.
.	.	2A	.	2F#	.
=205	=205	=205	=205	=205	=205
0r	0C	1c	2.e	2G	0r
.	.	.	.	2.g	.
.	.	.	4c	.	.
.	.	1c	2c	.	.
.	.	.	.	4f	.
.	.	.	2g	2e	.
=206	=206	=206	=206	=206	=206
0r	0r	1r	2f	2d	1a
.	.	.	2e	2c	.
.	.	1G	1d	1g	2.b
.	.	.	.	.	4g
=207	=207	=207	=207	=207	=207
0r	0r	2c	2e	1g	2g
.	.	2B	2d	.	2dd
.	.	2A	4e	1r	2cc
.	.	.	4f	.	.
.	.	2G	[2g	.	2b
=208	=208	=208	=208	=208	=208
1r	0r	1d	2g]	2r	1a
.	.	.	2f#	2.d	.
2.G	.	1r	1g	.	[1b
.	.	.	.	4c	.
.	.	.	.	2d	.
4F	.	.	.	.	.
=209	=209	=209	=209	=209	=209
2G	0r	2r	0r	1e	2b]
1A	.	2.c	.	.	4a
.	.	.	.	.	4g
.	.	.	.	2c	1a
.	.	4B	.	.	.
2F	.	2c	.	2A	.
=210	=210	=210	=210	=210	=210
2D	0r	2d	0r	2B	0r
2E	.	2G	.	2c	.
2F	.	2A	.	2.d	.
[2G	.	2B	.	.	.
.	.	.	.	4c	.
=211	=211	=211	=211	=211	=211
4G]	0r	2d	2.g	2B	0r
4F	.	.	.	.	.
4E	.	2.c	.	2.e	.
4D	.	.	4f	.	.
2E	.	.	2g	.	.
.	.	4B	.	4d	.
2F	.	[2A	2a	[2c	.
=212	=212	=212	=212	=212	=212
1D	0r	2A]	2f	2c]	1r
.	.	4G	2d	2B	.
.	.	4F	.	.	.
1C	.	2G	1e	1c	2.g
.	.	[2c	.	.	.
.	.	.	.	.	4f
=213	=213	=213	=213	=213	=213
0r	1r	4c]	1e	0r	2g
.	.	4B	.	.	.
.	.	2c	.	.	1a
.	2.D	1d	2f	.	.
.	.	.	[2d	.	2f
.	4D	.	.	.	.
=214	=214	=214	=214	=214	=214
0r	2G	2B	4d]	0r	2d
.	.	.	4B	.	.
.	2E	2G	2c	.	2e
.	2D	2A	1d	.	2f
.	2GG	2B	.	.	[2g
=215	=215	=215	=215	=215	=215
0r	1.C	2.c	2r	0r	4g]
.	.	.	.	.	4f
.	.	.	1c	.	4e
.	.	4B	.	.	4d
.	.	4A	.	.	2e
.	.	4G	.	.	.
.	2D	2F	2A	.	2f
=216	=216	=216	=216	=216	=216
0r	1BB-	2G	2.B-	1r	1d
.	.	1F	.	.	.
.	.	.	4A	.	.
.	1C	.	1G	2r	1c
.	.	2E	.	[2c	.
=217	=217	=217	=217	=217	=217
1r	[0FF	1F	1A	2c]	2r
.	.	.	.	2c	1cc
[1F	.	[1A	1f	4c	.
.	.	.	.	4B-	.
.	.	.	.	4A	2cc
.	.	.	.	4G	.
=218	=218	=218	=218	=218	=218
2F]	0FF]	2A]	2f	2A	4cc
.	.	.	.	.	4b-
2F	.	2A	1f	2F	4a
.	.	.	.	.	4g
1F	.	2.A	.	1f	1a
.	.	.	[2c	.	.
.	.	4B	.	.	.
=219	=219	=219	=219	=219	=219
[0C	1r	0c	4c]	2.e	0g
.	.	.	4d	.	.
.	.	.	4e	.	.
.	.	.	4f	8d	.
.	.	.	.	8c	.
.	[1C	.	4g	2.e	.
.	.	.	4f	.	.
.	.	.	4e	.	.
.	.	.	4d	4f	.
=220	=220	=220	=220	=220	=220
0C]	2C]	0r	0e	1g	2r
.	2C	.	.	.	1cc
.	1C	.	.	2r	.
.	.	.	.	[2g	2cc
=221	=221	=221	=221	=221	=221
2r	0GG	1r	2.d	2g]	2b
1G	.	.	.	2g	2g
.	.	.	4c	.	.
.	.	2r	4B	2d	1b
.	.	.	4A	.	.
2G	.	[2d	2G	2d	.
=222	=222	=222	=222	=222	=222
2F	1.D	2d]	2A	2.f	1a
2D	.	2d	1f	.	.
.	.	.	.	4e	.
1F	.	2A	.	2d	2.a
.	2D	2A	2f	[2A	.
.	.	.	.	.	4g
=223	=223	=223	=223	=223	=223
0C	2AA	1c	2e	2A]	4a
.	.	.	.	.	4b
.	2AA	.	2c	2.e	2.cc
.	1C	2G	1e	.	.
.	.	.	.	4f	4b
.	.	[2G	.	[2g	4g
.	.	.	.	.	4a
=224	=224	=224	=224	=224	=224
1G	1GG	4G]	1d	2g]	4b
.	.	4A	.	.	4cc
.	.	4B	.	2d	1dd
.	.	4G	.	.	.
1D	[1D	1A	2r	[1f	.
.	.	.	[2d	.	4cc
.	.	.	.	.	4b
=225	=225	=225	=225	=225	=225
2.F	1D]	1d	2d]	1f]	2.a
.	.	.	1A	.	.
4G	.	.	.	.	4b
2.A	1AA	2.c	.	1e	[1cc
.	.	.	[2c	.	.
8G	.	8B	.	.	.
8F	.	8A	.	.	.
=226	=226	=226	=226	=226	=226
1E	0C	1.G	4c]	2.c	2cc]
.	.	.	4d	.	.
.	.	.	4e	.	2g
.	.	.	4f	4d	.
1C	.	.	1g	1e	1cc
.	.	2A	.	.	.
!! Et vitam
*Ibass	*Ibass	*Itenor	*Icalto	*Icalto	*Icant
!Bassus 2	!Bassus 1	!Tenor	!Altus 2	!Altus 1	!Cantus
*clefF4	*clefF4	*clefGv2	*clefG2	*clefG2	*clefG2
*k[]	*k[]	*k[]	*k[]	*k[]	*k[]
*G:mix	*G:mix	*G:mix	*G:mix	*G:mix	*G:mix
*M3/2	*M3/2	*M3/2	*M3/2	*M3/2	*M3/2
=227	=227	=227	=227	=227	=227
1G	1GG	1B	2g	2d	1b
.	.	.	2d	2B	.
2C	2r	2r	2e	2c	2r
=228	=228	=228	=228	=228	=228
1G	2r	1r	2d	2B	2r
.	2G	.	2g	2d	2b
2r	2A	2r	2f#	2c	2cc
=229	=229	=229	=229	=229	=229
1r	2G	1r	2g	2d	2.b
.	2E	.	2G	2e	.
.	.	.	.	.	4cc
2r	2F	2r	2A	2c	2a
=230	=230	=230	=230	=230	=230
1r	2G	2d	2B	2B	2g
.	2C	2e	2c	1A	2e
2r	2D	2d	2A	.	2f#
=231	=231	=231	=231	=231	=231
2r	1GG	1B	1d	2G	2g
2G	.	.	.	2g	2r
2A	2r	2c	2r	2f#	2cc
=232	=232	=232	=232	=232	=232
2G	2r	2d	1r	2g	1b
2E	2G	2e	.	2g	.
2F	2A	2c	2r	2f	2a
=233	=233	=233	=233	=233	=233
2G	2G	2B	1g	2d	2dd
2C	2E	2e	.	2r	2cc
2D	2F	4.d	2f	2d	2a
.	.	8c	.	.	.
=234	=234	=234	=234	=234	=234
2GG	2G	2B	2d	2d	2.g
2r	2C	1A	2e	2c	.
.	.	.	.	.	4e
2r	2D	.	2d	2A	2f#
!! coda
*Ibass	*Ibass	*Itenor	*Icalto	*Icalto	*Icant
!Bassus 2	!Bassus 1	!Tenor	!Altus 2	!Altus 1	!Cantus
*clefF4	*clefF4	*clefGv2	*clefG2	*clefG2	*clefG2
*k[]	*k[]	*k[]	*k[]	*k[]	*k[]
*G:mix	*G:mix	*G:mix	*G:mix	*G:mix	*G:mix
*M4/2	*M4/2	*M4/2	*M4/2	*M4/2	*M4/2
=235	=235	=235	=235	=235	=235
0G	0GG	1G	2d	1B	2g
.	.	.	2.G	.	4g
.	.	.	.	.	4a
.	.	2r	.	2.G	4b
.	.	.	4A	.	4cc
.	.	[2G	4B	.	[2dd
.	.	.	4c	4A	.
=236	=236	=236	=236	=236	=236
0G	0GG	4G]	1d	4B	2dd]
.	.	4A	.	4c	.
.	.	4B	.	1d	2.g
.	.	4c	.	.	.
.	.	1d	2.G	.	.
.	.	.	.	.	4a
.	.	.	.	[2G	4b
.	.	.	4A	.	4cc
=237	=237	=237	=237	=237	=237
2r	0GG	2.G	4B	4G]	2.dd
.	.	.	4c	4A	.
2.GG	.	.	2d	4B	.
.	.	4A	.	4c	4cc
.	.	4B	2G	1d	1b
4AA	.	4c	.	.	.
4BB	.	[2d	[2g	.	.
4C	.	.	.	.	.
=238	=238	=238	=238	=238	=238
0D	2r	2d]	2g]	1d	0a
.	2.D	4c	4f	.	.
.	.	4B	4e	.	.
.	.	1A	2f	2.d	.
.	4E	.	.	.	.
.	4F	.	[2d	.	.
.	4G	.	.	4e	.
=239	=239	=239	=239	=239	=239
1D	1A	2.D	4d]	4f	1r
.	.	.	4e	4g	.
.	.	.	4f	2a	.
.	.	4E	4g	.	.
2r	1D	4F	2a	2.f	2.d
.	.	4G	.	.	.
[2D	.	2A	[2d	.	.
.	.	.	.	4e	4e
=240	=240	=240	=240	=240	=240
2D]	[0D	2.D	4d]	0d	2f
.	.	.	4c	.	.
2GG	.	.	2B-	.	2g
.	.	4E	.	.	.
2D	.	2F	2A	.	2a
2GG	.	2G	4d	.	2b-
.	.	.	4e	.	.
=241	=241	=241	=241	=241	=241
2D	0D]	2A	2f	1d	2a
2GG	.	2B-	1g	.	2.dd
1D	.	1A	.	2r	.
.	.	.	.	.	4cc
.	.	.	2f#	[2d	2a
=242	=242	=242	=242	=242	=242
1GG	2r	2.G	[0g	4d]	2.b
.	.	.	.	4c	.
.	1G	.	.	1B	.
.	.	4A	.	.	4cc
[1G	.	2B	.	.	2dd
.	2C	2c	.	4A	2ee
.	.	.	.	4G	.
=243	=243	=243	=243	=243	=243
1G]	2G	2d	0g]	2B	2dd
.	2C	2e	.	2c	1cc
1GG	1G	1d	.	2d	.
.	.	.	.	[2g	2b
=244	=244	=244	=244	=244	=244
0C	1E	1.G	[0g	4g]	0cc
.	.	.	.	4f	.
.	.	.	.	4e	.
.	.	.	.	4d	.
.	1C	.	.	1e	.
.	.	2A	.	.	.
=245	=245	=245	=245	=245	=245
0GG	0G	0B	0g]	0d	0b
==	==	==	==	==	==
*-	*-	*-	*-	*-	*-
!!!CDT: 1525/^1526/-1594/2/2
!!!OCY: Italia
!!!AGN: Mass (Parody)
!!!AST: renaissance, vocal
!!!ASW: Motet 1520 (Josquin)
!!!PWK: Masses, Book 11
!!!RNB: Cadence finals: D
!!!YOR: Le Opere Complete, v. 28, p. 222
!!!YOO: Rome, Italy: Fratelli Scalera
!!!END: 1992//
!!!EED: John Miller
!!!YEC: Copyright 2000, John Miller
!!!YEN: United States of America
!!!YEM: Rights to all derivative electronic formats reserved.
!!!YEM: Refer to licensing agreement for further details.
!!!YEM: This file must be accompanied by the licensing agreement.
!!!YEM: A copy of the licensing agreement may be found at http://www.music-cog.ohio-state.edu/HumdrumDatabases/Palestrina/license.txt
!!!EMD: converted to Humdrum by Bret Aarden
